public/img/kontakt.svg

<svg width="168" height="168" viewBox="0 0 168 168" fill="none" xmlns="http://www.w3.org/2000/svg">
<path d="M83.03 166.06C128.886 166.06 166.06 128.886 166.06 83.03C166.06 37.1738 128.886 0 83.03 0C37.1738 0 0 37.1738 0 83.03C0 128.886 37.1738 166.06 83.03 166.06Z" fill="#3BD4AE"/>
<path d="M122.29 118.88L133.91 103.74C133.91 103.74 140.95 97.7598 133.91 93.8798C126.87 90.0098 124.02 82.6898 129.67 76.8398C135.32 70.9998 138.49 66.7698 139.9 65.0098C141.31 63.2498 144.48 57.2698 151.87 63.5998C159.26 69.9398 170.76 75.9998 164.19 89.8098C148.01 123.79 117.02 157.93 103.3 163.92C93.0999 168.37 83.3599 165.53 75.8399 156.88C71.8699 152.32 72.6699 144.91 81.1199 137.17C87.5799 131.25 88.4799 131.3 89.0199 130.54C89.1899 130.31 95.1999 126.61 100.83 132.59C107.06 139.2 111.04 132.59 113.5 130.13C115.96 127.68 122.29 118.88 122.29 118.88Z" fill="white"/>
<path d="M93.75 167.84C86.71 167.84 80.08 164.53 74.47 158.07C70.43 153.43 69.74 145.15 79.89 135.85C84.19 131.9 86.13 130.52 87.05 129.86C87.27 129.7 87.5 129.54 87.56 129.48C88.09 128.74 90.42 127.59 92.99 127.43C95.32 127.27 98.8 127.84 102.13 131.37C103.58 132.91 104.9 133.67 106.1 133.66C107.96 133.63 109.68 131.68 111.06 130.12C111.47 129.65 111.86 129.22 112.21 128.87C114.54 126.54 120.76 117.91 120.82 117.83L120.85 117.79L132.73 102.38C133.43 101.78 135.39 99.6698 135.21 97.9498C135.12 97.0498 134.38 96.2198 133.03 95.4798C128.52 92.9998 125.58 89.2498 124.97 85.1998C124.45 81.7598 125.62 78.4398 128.36 75.6198C133.22 70.5998 136.22 66.7798 137.83 64.7298L138.47 63.9198C138.58 63.7798 138.71 63.5998 138.85 63.4098C139.87 62.0098 141.77 59.4198 145.02 59.0398C147.49 58.7598 150.18 59.8398 153.01 62.2698C154 63.1198 155.06 63.9598 156.19 64.8498C163.27 70.4498 172.07 77.4198 165.79 90.6198C149.8 124.2 118.91 159.1 103.99 165.6C100.54 167.1 97.1 167.84 93.75 167.84ZM90.26 131.88C89.95 132.22 89.61 132.47 89.16 132.79C88.29 133.41 86.48 134.71 82.34 138.5C75.44 144.82 73.47 151.41 77.2 155.7C84.37 163.94 93.38 166.28 102.58 162.27C115.34 156.71 146.16 123.5 162.57 89.0398C167.62 78.4298 161 73.1898 153.99 67.6398C152.89 66.7698 151.75 65.8698 150.71 64.9698C148.67 63.2198 146.91 62.4198 145.48 62.5798C143.79 62.7798 142.64 64.3498 141.8 65.4998C141.62 65.7398 141.46 65.9598 141.32 66.1398L140.69 66.9298C139.04 69.0298 135.96 72.9398 130.98 78.0898C129.06 80.0798 128.22 82.3398 128.57 84.6298C129.01 87.5698 131.28 90.3598 134.8 92.2898C137.86 93.9698 138.68 96.0898 138.83 97.5598C139.19 101.16 136.07 104.22 135.25 104.96L123.76 119.93C123.33 120.53 117.29 128.89 114.79 131.39C114.48 131.7 114.15 132.07 113.8 132.48C112.05 134.47 109.64 137.19 106.19 137.24C103.94 137.23 101.7 136.12 99.53 133.82C95.25 129.31 90.99 131.46 90.26 131.88Z" fill="#131428"/>
<path d="M90.4701 94.4098C90.4701 94.4098 93.5001 102.4 94.4901 105.05C95.4801 107.69 99.4501 115.19 84.5701 110.95C75.9701 107.04 73.6701 104.39 73.6701 104.39C73.6701 104.39 30.2001 110.2 12.5001 78.5998C-4.35993 48.5098 21.9701 23.7298 35.3101 18.4298C45.2101 14.4998 80.6001 5.20979 101.43 38.9298C119.74 68.5498 99.0701 88.1298 90.4701 94.4098Z" fill="white" stroke="#131428" stroke-width="3.3845" stroke-miterlimit="10"/>
<path d="M37.9401 63.68C40.4861 63.68 42.5501 61.616 42.5501 59.07C42.5501 56.5239 40.4861 54.46 37.9401 54.46C35.394 54.46 33.3301 56.5239 33.3301 59.07C33.3301 61.616 35.394 63.68 37.9401 63.68Z" fill="#131428"/>
<path d="M81.9401 63.68C84.4861 63.68 86.5501 61.616 86.5501 59.07C86.5501 56.5239 84.4861 54.46 81.9401 54.46C79.394 54.46 77.3301 56.5239 77.3301 59.07C77.3301 61.616 79.394 63.68 81.9401 63.68Z" fill="#131428"/>
<path d="M60.3201 77.3902C60.1601 77.3902 60.0001 77.3902 59.8501 77.3802C53.0001 77.1202 48.4201 71.2602 48.2301 71.0102C47.6701 70.2902 47.8101 69.2502 48.5301 68.6902C49.2501 68.1402 50.2901 68.2702 50.8501 68.9902C50.9001 69.0502 54.7201 73.8902 60.0001 74.0702C63.3301 74.2002 66.6101 72.4502 69.8001 68.8902C70.4101 68.2102 71.4501 68.1502 72.1301 68.7602C72.8101 69.3702 72.8701 70.4102 72.2601 71.0902C68.5101 75.2802 64.5001 77.3902 60.3201 77.3902Z" fill="#131428"/>
</svg>

<svg fill="none" height="168" viewBox="0 0 168 168" width="168" xmlns="http://www.w3.org/2000/svg"><path d="m83.03 166.06c45.856 0 83.03-37.174 83.03-83.03 0-45.8562-37.174-83.03-83.03-83.03-45.8562 0-83.03 37.1738-83.03 83.03 0 45.856 37.1738 83.03 83.03 83.03z" fill="#3bd4ae"/><path d="m122.29 118.88 11.62-15.14s7.04-5.9802 0-9.8602c-7.04-3.87-9.89-11.19-4.24-17.04 5.65-5.84 8.82-10.07 10.23-11.83s4.58-7.74 11.97-1.41c7.39 6.34 18.89 12.4 12.32 26.21-16.18 33.9802-47.17 68.1202-60.89 74.1102-10.2001 4.45-19.9401 1.61-27.4601-7.04-3.97-4.56-3.17-11.97 5.28-19.71 6.46-5.92 7.36-5.87 7.9-6.63.17-.23 6.18-3.93 11.8101 2.05 6.23 6.61 10.21 0 12.67-2.46 2.46-2.45 8.79-11.25 8.79-11.25z" fill="#fff"/><path d="m93.75 167.84c-7.04 0-13.67-3.31-19.28-9.77-4.04-4.64-4.73-12.92 5.42-22.22 4.3-3.95 6.24-5.33 7.16-5.99.22-.16.45-.32.51-.38.53-.74 2.86-1.89 5.43-2.05 2.33-.16 5.81.41 9.14 3.94 1.45 1.54 2.77 2.3 3.97 2.29 1.86-.03 3.58-1.98 4.96-3.54.41-.47.8-.9 1.15-1.25 2.33-2.33 8.55-10.96 8.61-11.04l.03-.04 11.88-15.41c.7-.6 2.66-2.7102 2.48-4.4302-.09-.9-.83-1.73-2.18-2.47-4.51-2.48-7.45-6.23-8.06-10.28-.52-3.44.65-6.76 3.39-9.58 4.86-5.02 7.86-8.84 9.47-10.89l.64-.81c.11-.14.24-.32.38-.51 1.02-1.4 2.92-3.99 6.17-4.37 2.47-.28 5.16.8 7.99 3.23.99.85 2.05 1.69 3.18 2.58 7.08 5.6 15.88 12.57 9.6 25.77-15.99 33.5802-46.88 68.4802-61.8 74.9802-3.45 1.5-6.89 2.24-10.24 2.24zm-3.49-35.96c-.31.34-.65.59-1.1.91-.87.62-2.68 1.92-6.82 5.71-6.9 6.32-8.87 12.91-5.14 17.2 7.17 8.24 16.18 10.58 25.38 6.57 12.76-5.56 43.58-38.77 59.99-73.2302 5.05-10.61-1.57-15.85-8.58-21.4-1.1-.87-2.24-1.77-3.28-2.67-2.04-1.75-3.8-2.55-5.23-2.39-1.69.2-2.84 1.77-3.68 2.92-.18.24-.34.46-.48.64l-.63.79c-1.65 2.1-4.73 6.01-9.71 11.16-1.92 1.99-2.76 4.25-2.41 6.54.44 2.94 2.71 5.73 6.23 7.66 3.06 1.68 3.88 3.8 4.03 5.27.36 3.6002-2.76 6.6602-3.58 7.4002l-11.49 14.97c-.43.6-6.47 8.96-8.97 11.46-.31.31-.64.68-.99 1.09-1.75 1.99-4.16 4.71-7.61 4.76-2.25-.01-4.49-1.12-6.66-3.42-4.28-4.51-8.54-2.36-9.27-1.94z" fill="#131428"/><path d="m90.4701 94.4098s3.03 7.9902 4.02 10.6402c.99 2.64 4.96 10.14-9.92 5.9-8.6-3.91-10.9-6.56-10.9-6.56s-43.47 5.81-61.17-25.7902c-16.86003-30.09 9.47-54.87 22.81-60.17 9.9-3.93 45.29-13.22001 66.1199 20.5 18.31 29.62-2.3599 49.2-10.9599 55.48z" fill="#fff" stroke="#131428" stroke-miterlimit="10" stroke-width="3.3845"/><g fill="#131428"><path d="m37.9401 63.68c2.546 0 4.61-2.064 4.61-4.61 0-2.5461-2.064-4.61-4.61-4.61-2.5461 0-4.61 2.0639-4.61 4.61 0 2.546 2.0639 4.61 4.61 4.61z"/><path d="m81.9401 63.68c2.546 0 4.61-2.064 4.61-4.61 0-2.5461-2.064-4.61-4.61-4.61-2.5461 0-4.61 2.0639-4.61 4.61 0 2.546 2.0639 4.61 4.61 4.61z"/><path d="m60.3201 77.3902c-.16 0-.32 0-.47-.01-6.85-.26-11.43-6.12-11.62-6.37-.56-.72-.42-1.76.3-2.32.72-.55 1.76-.42 2.32.3.05.06 3.87 4.9 9.15 5.08 3.33.13 6.61-1.62 9.8-5.18.61-.68 1.65-.74 2.33-.13s.74 1.65.13 2.33c-3.75 4.19-7.76 6.3-11.94 6.3z"/></g></svg>
